Origami/64x64/apps/clipgrab.svg

<svg xmlns="http://www.w3.org/2000/svg" width="64" height="64" version="1">
 <path style="opacity:0.2" d="m 4.0507997,32.000415 c -0.0118,0.333995 -0.050799,0.66199 -0.050799,0.999985 C 4.0000004,48.512179 16.487822,61 31.9996,61 47.511378,61 59.9992,48.512179 59.9992,33.0004 c 0,-0.337995 -0.04,-0.66599 -0.05,-0.999985 C 59.421208,47.0422 47.173383,59.000029 31.9996,59.000029 16.825417,59.000029 4.5779921,47.0422 4.0499997,32.000415 Z"/>
 <rect style="fill:#2095f2" width="55.999" height="55.999" x="-60" y="-60" rx="28" ry="28" transform="matrix(0,-1,-1,0,0,0)"/>
 <path style="opacity:0.2;fill:#ffffff" d="M 31.962891 4 C 25.572777 4.00825 19.700244 6.1400397 15.001953 9.7246094 C 15.068242 25.180333 27.729017 38 43.199219 38 C 49.521128 38 55.321514 35.500338 59.998047 31.992188 C 59.997547 30.055952 59.802932 28.167279 59.431641 26.34375 C 59.43123 26.341735 59.430098 26.339906 59.429688 26.337891 C 59.15092 24.970296 58.77389 23.639557 58.304688 22.353516 C 58.304189 22.352149 58.303233 22.350976 58.302734 22.349609 C 57.676218 20.633212 56.886555 18.995795 55.953125 17.457031 C 52.919784 12.456552 48.36325 8.4908242 42.917969 6.1953125 C 42.917411 6.1950775 42.916573 6.1955475 42.916016 6.1953125 C 42.497649 6.0189777 42.075057 5.8516504 41.646484 5.6953125 C 41.645907 5.6951017 41.645109 5.6955232 41.644531 5.6953125 C 38.640437 4.5996784 35.392326 4.0039063 32 4.0039062 C 31.988309 4.0039062 31.97463 4.0000667 31.962891 4 z"/>
 <path style="opacity:0.2" d="m 29.139641,13.001572 c -0.789989,0 -1.12967,0.687248 -1.139641,1.538978 l 0,24.460307 -6.000257,0 L 31.9996,53 41.999457,39.000857 36,39.000857 36,14.54055 c 0,-0.853188 -0.354452,-1.539978 -1.144441,-1.539978 l -5.715918,0 z"/>
 <path style="fill:#ffffff" d="m 29.139641,12.000715 c -0.789989,0 -1.12967,0.687248 -1.139641,1.538978 L 28,38 21.999743,38 31.9996,51.999143 41.999457,38 36,38 36,13.539693 c 0,-0.853188 -0.354452,-1.539978 -1.144441,-1.539978 l -5.715918,0 z"/>
 <path style="opacity:0.2;fill:#ffffff" d="M 32 4 C 16.488222 4 4 16.488222 4 32 C 4 32.113554 4.0112846 32.224034 4.0175781 32.335938 C 4.3691163 17.134398 16.710946 5 32 5 C 47.289054 5 59.630884 17.134398 59.982422 32.335938 C 59.988797 32.224034 60 32.113554 60 32 C 60 16.488222 47.511778 4 32 4 z"/>
</svg>

<svg width="64" height="64" version="1" xmlns="http://www.w3.org/2000/svg">
 <path d="m4.0507997 32.000415c-0.0118 0.333995-0.050799 0.66199-0.050799 0.999985-3e-7 15.511779 12.487821 27.9996 27.999599 27.9996s27.9996-12.487821 27.9996-27.9996c0-0.337995-0.04-0.66599-0.05-0.999985-0.527992 15.041785-12.775817 26.999614-27.9496 26.999614-15.174183 0-27.421608-11.957829-27.9496-26.999614z" style="opacity:.2"/>
 <rect transform="matrix(0,-1,-1,0,0,0)" x="-60" y="-60" width="55.999" height="55.999" rx="28" ry="28" style="fill:#2095f2"/>
 <path d="m31.962891 4c-6.390114 0.00825-12.262647 2.1400397-16.960938 5.7246094 0.066289 15.455724 12.727064 28.275391 28.197266 28.275391 6.321909 0 12.122295-2.499662 16.798828-6.007812-5e-4 -1.936236-0.195115-3.824909-0.566406-5.648438-4.11e-4 -0.002015-0.001543-0.003844-0.001953-0.005859-0.278768-1.367595-0.655798-2.698334-1.125-3.984375-4.99e-4 -0.001367-0.001455-0.00254-0.001954-0.003907-0.626516-1.716397-1.416179-3.353814-2.349609-4.892578-3.033341-5.000479-7.589875-8.9662068-13.035156-11.261718-5.58e-4 -2.35e-4 -0.001396 2.35e-4 -0.001953 0-0.418367-0.1763348-0.840959-0.3436621-1.269532-0.5-5.77e-4 -2.108e-4 -0.001375 2.107e-4 -0.001953 0-3.004094-1.0956341-6.252205-1.6914062-9.644531-1.6914063-0.011691 0-0.02537-0.0038395-0.037109-0.0039062z" style="fill:#ffffff;opacity:.2"/>
 <path d="m29.139641 13.001572c-0.789989 0-1.12967 0.687248-1.139641 1.538978v24.460307h-6.000257l9.999857 13.999143 9.999857-13.999143h-5.999457v-24.460307c0-0.853188-0.354452-1.539978-1.144441-1.539978h-5.715918z" style="opacity:.2"/>
 <path d="m29.139641 12.000715c-0.789989 0-1.12967 0.687248-1.139641 1.538978v24.460307h-6.000257l9.999857 13.999143 9.999857-13.999143h-5.999457v-24.460307c0-0.853188-0.354452-1.539978-1.144441-1.539978h-5.715918z" style="fill:#ffffff"/>
 <path d="M 32 4 C 16.488222 4 4 16.488222 4 32 C 4 32.113554 4.0112846 32.224034 4.0175781 32.335938 C 4.3691163 17.134398 16.710946 5 32 5 C 47.289054 5 59.630884 17.134398 59.982422 32.335938 C 59.988797 32.224034 60 32.113554 60 32 C 60 16.488222 47.511778 4 32 4 z" style="fill:#ffffff;opacity:.2"/>
</svg>
